X: 26581
T: Mick Flaherty's
R: reel
M: 4/4
K: Dminor
ADFD ADFD|GCEC GCEG|ADFD ADFA|GECD ED D2|
AD D2 ADFA|GE E2 CGEC|F2 GF E2 cA|GECD ED D2:|
F2 CF AdcA|GE E2 CGEC|F2 FG AdcA|GECD ED D2|
F2 CF AdcA|GE E2 CGEC|F2 GF E2 cA|GECD ED D2:|

